; Generated with MatterSlice 1.0
; filamentDiameter = 1.75
; extrusionWidth = 2
; firstLayerExtrusionWidth = 2
; layerThickness = 0.1
; firstLayerThickness = 0.1
; automatic settings before start_gcode
G21 ; set units to millimeters
M107 ; fan off
; settings from start_gcode
G28 XY ; home all axes
;M86 D0
;;M87 D1
;M76 D0
;M72 D0
; automatic settings after start_gcode
G90 ; use absolute coordinates
G92 E0 ; reset the expected extruder position
M82 ; use absolute distance for extrusion
M78 B1 P4 S20 D0
M78 B2 P3 S8 D0
M78 B3 P3 S8 D0
M78 B4 P3 S8 D0
M78 B5 P3 S8 D0
M78 B6 P3 S8 D0
M78 B7 P3 S8 D0
M78 B8 P3 S8 D0
T0 B8
; Layer count: 29
; Layer Change GCode
; LAYER:0
;M87 B8 D1
;M87 B1 D1
;M87 B2 D1
;M87 B3 D1
;M87 B4 D1
;M87 B5 D1
;M87 B6 D1
;M87 B7 D1
M400
M107
; Layer Change GCode
; LAYER:1
;M87 B1 D1
;M87 B1 D1
;M87 B2 D1
;M87 B3 D1
;M87 B4 D1
;M87 B5 D1
;M87 B6 D1
;M87 B7 D1
M400
M106 S89
G0 Z2
G0 F4800 X222.756 Y134.09 Z2.15
; TYPE:WALL-OUTER
G0 Z0.15
M400
;M87 B1 D0
M78 B1 D1
M400
M86 B1 D1
G1 F336 X222.632 Y134.309
G1 X222.608 Y134.386
G1 X222.492 Y134.561
G1 X222.431 Y134.742
G1 X222.415 Y135.042
G1 X222.431 Y135.165
G1 X222.45 Y135.205
G1 X222.504 Y135.201
G1 X222.589 Y135.074
M400
M86 B1 D0
G0 F4800 X222.82 Y134.076
M400
M86 B1 D1
G1 F336 X222.785 Y134.096
M400
M86 B1 D0
G0 F4800 X222.613 Y134.558
; TYPE:WALL-INNER
M400
M86 B1 D1
G1 F336 X222.558 Y134.765
M400
M86 B1 D0
G0 F4800 X222.84 Y134.037
; TYPE:FILL
M400
M86 B1 D1
G1 F336 X222.854 Y134.015
G1 X222.858 Y133.982
M400
M86 B1 D0
G0 F4800 X222.839 Y133.979
M400
M86 B1 D1
G1 F336 X223.043 Y133.734
G1 X223.232 Y133.434
G1 X223.279 Y133.422
M400
M86 B1 D0
G0 F4800 X223.235 Y133.404
; TYPE:WALL-OUTER
M400
M86 B1 D1
G1 F336 X223.292 Y133.273
M400
M86 B1 D0
G0 F4800 X223.435 Y133.141
M400
M86 B1 D1
G1 F336 X223.446 Y133.13
G1 X223.459 Y133.108
G1 X223.47 Y133.105
M400
M86 B1 D0
G0 F4800 X223.47 Y133.11
M400
M86 B1 D1
G1 F336 X223.47 Y133.154
M400
M86 B1 D0
G0 Z2.15
G0 F4800 X225.168 Y131.578
G0 Z0.15
M400
M86 B1 D1
G1 F336 X225.131 Y131.832
G1 X224.876 Y132.168
G1 X224.583 Y132.255
G1 X224.528 Y132.23
G1 X224.351 Y131.816
M400
M86 B1 D0
G0 F4800 X225.061 Y131.663
; TYPE:WALL-INNER
M400
M86 B1 D1
G1 F336 X225.035 Y131.794
G1 X224.817 Y132.081
G1 X224.601 Y132.145
G1 X224.59 Y132.118
M400
M86 B1 D0
G0 F4800 X224.987 Y131.79
; TYPE:BOTTOM-FILL
M400
M86 B1 D1
G1 F336 X224.92 Y131.795
G1 X224.698 Y131.713
G1 X224.834 Y131.991
G1 X224.541 Y131.84
G1 X224.703 Y132.072
; Layer Change GCode
; LAYER:2
M400
M86 B1 D0
;M87 B1 D1
;M87 B1 D1
;M87 B2 D1
;M87 B3 D1
;M87 B4 D1
;M87 B5 D1
;M87 B6 D1
;M87 B7 D1
G0 Z2.15
G0 F4800 X223.859 Y132.922 Z2.25
; TYPE:WALL-OUTER
G0 Z0.25
M400
;M87 B1 D0
M78 B1 D1
M400
M86 B1 D1
G1 F600 X223.807 Y132.994
G1 X223.761 Y133.145
G1 X223.622 Y133.264
G1 X223.24 Y133.669
G1 X223.032 Y133.945
G1 X222.837 Y134.488
G1 X222.775 Y134.8
G1 X222.639 Y135.172
G1 X222.537 Y135.298
G1 X222.488 Y135.317
G1 X222.408 Y135.193
G1 X222.384 Y135.02
G1 X222.365 Y134.649
G1 X222.491 Y134.449
G1 X222.538 Y134.342
G1 X222.597 Y134.28
G1 X222.833 Y133.817
G1 X222.949 Y133.65
G1 X223.246 Y132.936
G1 X223.318 Y132.813
G1 X223.408 Y132.784
G1 X223.468 Y132.721
G1 X223.619 Y132.395
G1 X223.767 Y132.148
G1 X223.818 Y131.937
G1 X223.824 Y131.851
G1 X223.851 Y131.764
G1 X224.015 Y131.684
G1 X224.106 Y131.687
G1 X224.181 Y131.673
G1 X224.38 Y131.646
G1 X224.416 Y131.616
G1 X225.14 Y131.503
G1 X225.316 Y131.573
G1 X225.388 Y131.576
G1 X225.374 Y131.971
G1 X225.346 Y132.04
G1 X225.246 Y132.143
G1 X224.995 Y132.443
G1 X224.858 Y132.504
G1 X224.676 Y132.495
M400
M86 B1 D0
G0 F4800 X223.163 Y133.604
; TYPE:WALL-INNER
M400
M86 B1 D1
G1 F600 X223.553 Y133.191
G1 X223.679 Y133.084
G1 X223.713 Y132.953
G1 X223.798 Y132.837
G1 X224.24 Y132.694
G1 X224.447 Y132.673
G1 X224.504 Y132.507
G1 X224.643 Y132.393
G1 X224.84 Y132.403
G1 X224.939 Y132.358
G1 X225.26 Y131.984
G1 X225.276 Y131.947
G1 X225.293 Y131.671
G1 X225.129 Y131.606
G1 X224.458 Y131.711
G1 X224.421 Y131.741
G1 X224.186 Y131.773
G1 X224.127 Y131.788
G1 X224.03 Y131.785
G1 X223.939 Y131.827
G1 X223.862 Y132.183
G1 X223.707 Y132.442
G1 X223.574 Y132.73
M400
M86 B1 D0
G0 F4800 X223.126 Y133.589
M400
M86 B1 D1
G1 F600 X223.054 Y133.711
M400
M86 B1 D0
G0 F4800 X222.679 Y134.339
M400
M86 B1 D1
G1 F600 X222.621 Y134.4
M400
M86 B1 D0
G0 F4800 X222.531 Y135.032
M400
M86 B1 D1
G1 F600 X222.528 Y135.125
M400
M86 B1 D0
G0 F4800 X222.578 Y135.049
M400
M86 B1 D1
G1 F600 X222.678 Y134.772
M400
M86 B1 D0
G0 F4800 X223.312 Y133.278
M400
M106 S255
; TYPE:BRIDGE
M400
M86 B1 D1
G1 F1200 X223.608 Y132.914
G1 X224.5 Y132.015
G1 X223.726 Y132.502
G1 X224.414 Y131.828
G1 X223.921 Y132.092
G1 X224.096 Y131.826
G1 X224.266 Y132.01
G1 X223.352 Y133.054
G1 X223.724 Y132.822
G1 X224.766 Y132.251
G1 X225.003 Y132.063
G1 X225.213 Y131.705
G1 X225.16 Y131.811
G1 X224.554 Y132.42
G1 X224.508 Y132.458
G1 X224.402 Y131.771
G1 X225.007 Y132.093
G1 X224.881 Y131.685
G1 X224.323 Y132.54
G1 X223.298 Y133.212
G1 X223.321 Y133.377
; Layer Change GCode
; LAYER:3
M400
M86 B1 D0
;M87 B1 D1
;M87 B1 D1
;M87 B2 D1
;M87 B3 D1
;M87 B4 D1
;M87 B5 D1
;M87 B6 D1
;M87 B7 D1
M400
M106 S89
G0 Z2.25
G0 F4800 X222.947 Y134.43 Z2.35
; TYPE:WALL-OUTER
G0 Z0.35
M400
;M87 B1 D0
M78 B1 D1
M400
M86 B1 D1
G1 F600 X222.813 Y134.942
G1 X222.683 Y135.245
G1 X222.59 Y135.37
G1 X222.525 Y135.415
G1 X222.47 Y135.385
G1 X222.404 Y135.239
G1 X222.352 Y134.976
G1 X222.349 Y134.696
G1 X222.38 Y134.587
G1 X222.564 Y134.312
G1 X222.694 Y134.053
G1 X222.778 Y133.823
G1 X222.837 Y133.716
G1 X222.858 Y133.635
G1 X222.911 Y133.559
G1 X222.993 Y133.205
G1 X223.009 Y133.042
G1 X223.077 Y132.853
G1 X223.178 Y132.354
G1 X223.37 Y132.038
G1 X223.407 Y131.796
G1 X223.453 Y131.696
G1 X223.503 Y131.702
G1 X223.609 Y131.681
G1 X223.714 Y131.699
G1 X223.74 Y131.686
G1 X223.793 Y131.702
G1 X224.04 Y131.684
G1 X224.249 Y131.69
G1 X224.937 Y131.608
G1 X225.305 Y131.524
G1 X225.385 Y131.552
G1 X225.488 Y131.618
G1 X225.509 Y131.692
G1 X225.521 Y131.882
G1 X225.484 Y132.022
G1 X225.482 Y132.112
G1 X225.414 Y132.268
G1 X225.215 Y132.457
G1 X224.367 Y132.959
G1 X224.055 Y133.055
G1 X223.71 Y133.273
G1 X223.423 Y133.552
M400
M86 B1 D0
G0 F4800 X222.596 Y135.193
; TYPE:WALL-INNER
M400
M86 B1 D1
G1 F600 X222.717 Y134.912
G1 X222.853 Y134.395
G1 X223.099 Y133.878
G1 X223.299 Y133.534
G1 X223.648 Y133.194
G1 X224.016 Y132.961
G1 X224.329 Y132.865
G1 X225.154 Y132.377
G1 X225.331 Y132.209
G1 X225.383 Y132.089
G1 X225.384 Y132.008
G1 X225.42 Y131.872
G1 X225.401 Y131.681
G1 X225.298 Y131.628
G1 X224.954 Y131.707
G1 X224.254 Y131.79
G1 X224.044 Y131.784
G1 X223.782 Y131.803
G1 X223.749 Y131.793
G1 X223.729 Y131.803
G1 X223.609 Y131.783
G1 X223.515 Y131.801
G1 X223.466 Y132.073
G1 X223.271 Y132.392
G1 X223.174 Y132.879
G1 X223.107 Y133.066
G1 X223.092 Y133.222
G1 X223.005 Y133.599
G1 X222.95 Y133.677
G1 X222.93 Y133.753
G1 X222.873 Y133.857
G1 X222.786 Y134.093
G1 X222.682 Y134.302
M400
M86 B1 D0
G0 F4800 X222.533 Y135.24
M400
M86 B1 D1
G1 F600 X222.538 Y135.272
G1 X222.9 Y134.076
G1 X223.84 Y131.875
G1 X223.326 Y132.784
G1 X223.64 Y131.829
G1 X223.622 Y132.018
G1 X224.129 Y131.828
G1 X223.392 Y132.706
G1 X223.166 Y133.073
G1 X224.751 Y131.77
G1 X223.031 Y133.774
G1 X222.838 Y134.249
G1 X222.595 Y134.776
G1 X223.267 Y133.961
G1 X225.325 Y131.763
G1 X224.56 Y132.68
G1 X224.542 Y132.548
G1 X224.721 Y132.585
G1 X224.717 Y132.44
G1 X224.802 Y132.454
; Layer Change GCode
; LAYER:4
M400
M86 B1 D0
;M87 B1 D1
;M87 B1 D1
;M87 B2 D1
;M87 B3 D1
;M87 B4 D1
;M87 B5 D1
;M87 B6 D1
;M87 B7 D1
G0 Z2.35
G0 F4800 X223.443 Y133.597 Z2.45
; TYPE:WALL-OUTER
G0 Z0.45
M400
;M87 B1 D0
M78 B1 D1
M400
M86 B1 D1
G1 F336 X223.013 Y134.461
G1 X222.892 Y134.897
G1 X222.706 Y135.343
G1 X222.524 Y135.473
G1 X222.473 Y135.472
G1 X222.44 Y135.44
G1 X222.362 Y135.236
G1 X222.369 Y135.143
G1 X222.348 Y134.868
G1 X222.386 Y134.642
G1 X222.586 Y134.314
G1 X222.72 Y134.017
G1 X222.921 Y133.459
G1 X222.908 Y132.963
G1 X222.93 Y132.882
G1 X222.91 Y132.816
G1 X222.923 Y132.713
G1 X222.902 Y132.629
G1 X222.976 Y132.041
G1 X223.048 Y131.729
G1 X223.103 Y131.585
G1 X223.191 Y131.568
G1 X223.364 Y131.582
G1 X223.518 Y131.66
G1 X223.926 Y131.745
G1 X224.278 Y131.761
G1 X224.983 Y131.681
G1 X225.448 Y131.574
G1 X225.472 Y131.589
G1 X225.513 Y131.669
G1 X225.524 Y131.921
G1 X225.473 Y132.307
G1 X225.412 Y132.404
G1 X225.103 Y132.65
G1 X224.808 Y132.785
G1 X224.392 Y133.006
G1 X224.265 Y133.049
M400
M86 B1 D0
G0 F4800 X223.363 Y133.535
; TYPE:WALL-INNER
M400
M86 B1 D1
G1 F336 X222.919 Y134.425
G1 X222.797 Y134.865
G1 X222.625 Y135.278
G1 X222.515 Y135.357
G1 X222.463 Y135.222
G1 X222.449 Y134.874
G1 X222.482 Y134.676
G1 X222.675 Y134.361
G1 X222.813 Y134.054
G1 X223.021 Y133.477
G1 X223.009 Y132.974
G1 X223.034 Y132.881
G1 X223.012 Y132.806
G1 X223.024 Y132.707
G1 X223.004 Y132.623
G1 X223.076 Y132.049
G1 X223.177 Y131.67
G1 X223.19 Y131.669
G1 X223.338 Y131.681
G1 X223.485 Y131.755
G1 X223.913 Y131.844
G1 X224.281 Y131.861
G1 X225 Y131.78
G1 X225.409 Y131.685
G1 X225.423 Y131.92
G1 X225.377 Y132.272
G1 X225.336 Y132.338
G1 X225.051 Y132.564
G1 X224.764 Y132.695
G1 X224.355 Y132.913
G1 X224.177 Y132.973
M400
M86 B1 D0
G0 F4800 X223.394 Y133.45
; TYPE:FILL
M400
M86 B1 D1
G1 F336 X223.056 Y132.97
G1 X223.615 Y133.247
G1 X223.097 Y132.446
G1 X223.955 Y133.022
G1 X223.274 Y132.058
G1 X224.357 Y132.858
G1 X223.588 Y131.805
G1 X224.734 Y132.668
G1 X224.239 Y131.891
G1 X225.101 Y132.471
G1 X224.761 Y131.846
G1 X225.348 Y132.151
G1 X225.243 Y131.763
G1 X224.324 Y132.683
G1 X223.033 Y133.513
G1 X223.136 Y133.899
G1 X222.895 Y133.941
G1 X222.948 Y134.276
G1 X222.724 Y134.336
G1 X222.801 Y134.696
G1 X222.534 Y134.711
G1 X222.594 Y135.055
G1 X222.849 Y133.966
G1 X223.118 Y132.678
G1 X223.06 Y132.48
G1 X223.211 Y132.489
G1 X223.092 Y132.228
G1 X223.288 Y132.284
G1 X223.133 Y131.987
G1 X223.395 Y132.108
G1 X223.194 Y131.765
G1 X223.453 Y131.883
G1 X223.396 Y131.755
; Layer Change GCode
; LAYER:5
M400
M86 B1 D0
;M87 B1 D1
;M87 B1 D1
;M87 B2 D1
;M87 B3 D1
;M87 B4 D1
;M87 B5 D1
;M87 B6 D1
;M87 B7 D1
G0 Z2.45
G0 F4800 X223.509 Y133.592 Z2.55
; TYPE:WALL-OUTER
G0 Z0.55
M400
;M87 B1 D0
M78 B1 D1
M400
M86 B1 D1
G1 F600 X223.366 Y133.838
G1 X223.119 Y134.398
G1 X222.747 Y135.393
G1 X222.709 Y135.437
G1 X222.506 Y135.518
G1 X222.376 Y135.429
G1 X222.328 Y135.295
G1 X222.313 Y135.185
G1 X222.347 Y135.088
G1 X222.353 Y134.917
G1 X222.386 Y134.783
G1 X222.775 Y134.015
G1 X222.933 Y133.484
G1 X222.919 Y132.886
G1 X222.888 Y132.788
G1 X222.864 Y132.62
G1 X222.808 Y132.431
G1 X222.792 Y132.302
G1 X222.744 Y132.191
G1 X222.681 Y132.129
G1 X222.623 Y132.018
G1 X222.77 Y131.865
G1 X222.87 Y131.527
G1 X222.902 Y131.53
G1 X222.948 Y131.509
G1 X223.071 Y131.512
G1 X223.252 Y131.557
G1 X223.546 Y131.715
G1 X223.933 Y131.819
G1 X224.201 Y131.83
G1 X225.011 Y131.742
G1 X225.437 Y131.652
G1 X225.491 Y131.672
G1 X225.521 Y132.007
G1 X225.477 Y132.428
G1 X225.427 Y132.496
G1 X225.168 Y132.679
G1 X224.826 Y132.823
G1 X224.441 Y133.016
G1 X224.345 Y133.057
M400
M86 B1 D0
G0 F4800 X223.43 Y133.529
; TYPE:WALL-INNER
M400
M86 B1 D1
G1 F600 X223.277 Y133.793
G1 X223.026 Y134.361
G1 X222.66 Y135.342
G1 X222.524 Y135.409
G1 X222.459 Y135.365
G1 X222.415 Y135.195
G1 X222.446 Y135.107
G1 X222.452 Y134.93
G1 X222.479 Y134.821
G1 X222.868 Y134.052
G1 X223.034 Y133.497
G1 X223.018 Y132.869
G1 X222.986 Y132.766
G1 X222.962 Y132.599
G1 X222.905 Y132.407
G1 X222.889 Y132.275
G1 X222.828 Y132.134
G1 X222.744 Y132.032
G1 X222.857 Y131.92
G1 X222.951 Y131.617
G1 X223.064 Y131.613
G1 X223.216 Y131.651
G1 X223.509 Y131.808
G1 X223.918 Y131.918
G1 X224.204 Y131.93
G1 X225.027 Y131.841
G1 X225.399 Y131.763
G1 X225.421 Y132.006
G1 X225.381 Y132.39
G1 X225.356 Y132.425
G1 X225.119 Y132.591
G1 X224.784 Y132.732
G1 X224.398 Y132.926
G1 X224.259 Y132.985
M400
M86 B1 D0
G0 F4800 X222.996 Y132.237
M400
M106 S255
; TYPE:BRIDGE
M400
M86 B1 D1
G1 F1200 X223.011 Y131.68
G1 X222.976 Y131.917
G1 X222.903 Y132.119
G1 X223.343 Y131.765
G1 X222.96 Y132.43
G1 X223.758 Y131.916
G1 X223.046 Y132.91
G1 X224.284 Y131.955
G1 X223.051 Y133.471
G1 X224.914 Y131.89
G1 X223.542 Y133.404
G1 X222.992 Y134.096
G1 X222.759 Y134.611
G1 X222.6 Y135.053
G1 X223.398 Y134.113
G1 X225.366 Y132.005
G1 X223.946 Y132.152
G1 X222.998 Y131.686
; Layer Change GCode
; LAYER:6
M400
M86 B1 D0
;M87 B1 D1
;M87 B1 D1
;M87 B2 D1
;M87 B3 D1
;M87 B4 D1
;M87 B5 D1
;M87 B6 D1
;M87 B7 D1
M400
M106 S89
G0 Z2.55
G0 F4800 X222.84 Y133.989 Z2.65
; TYPE:WALL-OUTER
G0 Z0.65
M400
;M87 B1 D0
M78 B1 D1
M400
M86 B1 D1
G1 F336 X222.959 Y133.513
G1 X222.96 Y132.874
G1 X222.743 Y132.311
G1 X222.525 Y132.04
G1 X222.459 Y131.904
G1 X222.562 Y131.763
G1 X222.682 Y131.45
G1 X222.807 Y131.419
G1 X222.897 Y131.468
G1 X223.164 Y131.56
G1 X223.641 Y131.821
G1 X223.888 Y131.886
G1 X224.052 Y131.912
G1 X224.76 Y131.84
G1 X225.406 Y131.74
G1 X225.446 Y131.755
G1 X225.505 Y131.902
G1 X225.524 Y132.151
G1 X225.49 Y132.457
G1 X225.452 Y132.531
G1 X225.206 Y132.701
G1 X224.08 Y133.214
G1 X223.736 Y133.427
G1 X223.587 Y133.57
G1 X223.382 Y133.902
G1 X222.758 Y135.491
G1 X222.714 Y135.545
G1 X222.599 Y135.608
G1 X222.535 Y135.597
G1 X222.344 Y135.459
G1 X222.263 Y135.277
G1 X222.257 Y135.196
G1 X222.35 Y134.97
G1 X222.392 Y134.885
M400
M86 B1 D0
G0 F4800 X222.935 Y134.023
; TYPE:WALL-INNER
M400
M86 B1 D1
G1 F336 X223.059 Y133.526
G1 X223.06 Y132.856
G1 X222.83 Y132.259
G1 X222.61 Y131.985
G1 X222.578 Y131.911
G1 X222.651 Y131.811
G1 X222.756 Y131.534
G1 X222.792 Y131.525
G1 X223.125 Y131.653
G1 X223.604 Y131.914
G1 X223.867 Y131.984
G1 X224.049 Y132.013
G1 X224.773 Y131.939
G1 X225.373 Y131.847
G1 X225.406 Y131.918
G1 X225.423 Y132.152
G1 X225.393 Y132.427
G1 X225.375 Y132.463
G1 X225.157 Y132.614
G1 X224.033 Y133.125
G1 X223.675 Y133.348
G1 X223.508 Y133.507
G1 X223.292 Y133.857
G1 X222.672 Y135.439
G1 X222.581 Y135.503
G1 X222.424 Y135.392
G1 X222.362 Y135.254
G1 X222.359 Y135.213
G1 X222.44 Y135.015
G1 X222.488 Y134.919
M400
M86 B1 D0
G0 F4800 X222.93 Y134.117
; TYPE:FILL
M400
M86 B1 D1
G1 F336 X223.124 Y134.169
G1 X223.031 Y133.795
G1 X223.296 Y133.776
G1 X223.098 Y133.296
G1 X223.525 Y133.44
G1 X223.018 Y132.649
G1 X223.845 Y133.194
G1 X222.714 Y131.78
G1 X224.215 Y132.998
G1 X223.301 Y131.801
G1 X224.603 Y132.82
G1 X224.101 Y132.036
G1 X224.992 Y132.644
G1 X224.624 Y131.993
G1 X225.314 Y132.4
G1 X225.122 Y131.925
G1 X224.188 Y133.254
G1 X222.789 Y134.4
G1 X222.883 Y134.777
G1 X222.601 Y134.778
G1 X222.723 Y135.183
G1 X222.447 Y135.19
G1 X222.614 Y133.73
G1 X222.717 Y131.995
G1 X222.683 Y131.819
G1 X222.84 Y131.835
G1 X222.765 Y131.619
G1 X222.888 Y131.671
; Layer Change GCode
; LAYER:7
M400
M86 B1 D0
;M87 B1 D1
;M87 B1 D1
;M87 B2 D1
;M87 B3 D1
;M87 B4 D1
;M87 B5 D1
;M87 B6 D1
;M87 B7 D1
G0 Z2.65
G0 F4800 X222.909 Y134.005 Z2.75
; TYPE:WALL-OUTER
G0 Z0.75
M400
;M87 B1 D0
M78 B1 D1
M400
M86 B1 D1
G1 F336 X222.986 Y133.757
G1 X223.031 Y133.44
G1 X223.014 Y132.924
G1 X222.967 Y132.753
G1 X222.808 Y132.431
G1 X222.512 Y132.031
G1 X222.339 Y131.878
G1 X222.345 Y131.821
G1 X222.401 Y131.778
G1 X222.561 Y131.459
G1 X222.576 Y131.374
G1 X222.643 Y131.365
G1 X223.071 Y131.537
G1 X223.634 Y131.899
G1 X224.026 Y132
G1 X225.282 Y131.837
G1 X225.438 Y131.898
G1 X225.499 Y131.983
G1 X225.523 Y132.077
G1 X225.523 Y132.394
G1 X225.497 Y132.502
G1 X225.447 Y132.592
G1 X225.227 Y132.734
G1 X224.116 Y133.228
G1 X223.808 Y133.411
G1 X223.636 Y133.575
G1 X223.423 Y133.887
G1 X223.275 Y134.23
G1 X223.062 Y134.893
G1 X222.744 Y135.617
G1 X222.666 Y135.684
G1 X222.569 Y135.71
G1 X222.271 Y135.454
G1 X222.204 Y135.226
G1 X222.272 Y135.11
G1 X222.453 Y134.874
M400
M86 B1 D0
G0 F4800 X223.002 Y134.043
; TYPE:WALL-INNER
M400
M86 B1 D1
G1 F336 X223.084 Y133.779
G1 X223.131 Y133.445
G1 X223.113 Y132.909
G1 X223.061 Y132.718
G1 X222.894 Y132.379
G1 X222.586 Y131.963
G1 X222.464 Y131.856
G1 X222.66 Y131.473
G1 X223.024 Y131.626
G1 X223.59 Y131.99
G1 X223.72 Y132.035
G1 X224.022 Y132.101
G1 X225.269 Y131.939
G1 X225.374 Y131.98
G1 X225.406 Y132.024
G1 X225.423 Y132.091
G1 X225.423 Y132.384
G1 X225.404 Y132.465
G1 X225.372 Y132.522
G1 X225.179 Y132.646
G1 X224.07 Y133.139
G1 X223.747 Y133.331
G1 X223.559 Y133.51
G1 X223.335 Y133.838
G1 X223.181 Y134.195
G1 X222.965 Y134.866
G1 X222.663 Y135.555
G1 X222.588 Y135.601
G1 X222.357 Y135.396
G1 X222.312 Y135.239
G1 X222.538 Y134.928
M400
M86 B1 D0
G0 F4800 X223.213 Y134.017
; TYPE:FILL
M400
M86 B1 D1
G1 F336 X222.971 Y134.399
G1 X222.745 Y134.908
G1 X222.482 Y135.454
G1 X222.898 Y134.614
G1 X224.761 Y132.044
G1 X223.162 Y133.36
G1 X224.121 Y132.118
G1 X223.126 Y132.83
G1 X223.634 Y132.04
G1 X222.959 Y132.431
G1 X223.273 Y131.834
G1 X222.731 Y132.094
G1 X222.916 Y131.625
G1 X223.36 Y132.454
G1 X225.315 Y132.055
G1 X224.964 Y132.689
G1 X225.366 Y132.429
; Layer Change GCode
; LAYER:8
M400
M86 B1 D0
;M87 B1 D1
;M87 B1 D1
;M87 B2 D1
;M87 B3 D1
;M87 B4 D1
;M87 B5 D1
;M87 B6 D1
;M87 B7 D1
G0 Z2.75
G0 F4800 X223.411 Y133.906 Z2.85
; TYPE:WALL-OUTER
G0 Z0.85
M400
;M87 B1 D0
M78 B1 D1
M400
M86 B1 D1
G1 F336 X223.302 Y134.173
G1 X223.25 Y134.418
G1 X223.09 Y134.974
G1 X222.794 Y135.619
G1 X222.728 Y135.686
G1 X222.635 Y135.735
G1 X222.544 Y135.739
G1 X222.409 Y135.676
G1 X222.232 Y135.517
G1 X222.198 Y135.355
G1 X222.204 Y135.261
G1 X222.542 Y134.831
G1 X222.979 Y134.042
G1 X223.1 Y133.713
G1 X223.121 Y133.469
G1 X223.114 Y133.2
G1 X223.044 Y132.851
G1 X222.94 Y132.574
G1 X222.812 Y132.368
G1 X222.477 Y131.985
G1 X222.303 Y131.849
G1 X222.294 Y131.777
G1 X222.373 Y131.691
G1 X222.502 Y131.417
G1 X222.527 Y131.34
G1 X222.577 Y131.319
G1 X223.04 Y131.536
G1 X223.663 Y131.996
G1 X223.998 Y132.086
G1 X224.726 Y131.964
G1 X225.164 Y131.914
G1 X225.317 Y131.917
G1 X225.447 Y131.993
G1 X225.519 Y132.132
G1 X225.545 Y132.468
G1 X225.525 Y132.548
G1 X225.449 Y132.643
G1 X225.237 Y132.775
G1 X224.147 Y133.245
M400
M86 B1 D0
G0 F4800 X223.324 Y133.853
; TYPE:WALL-INNER
M400
M86 B1 D1
G1 F336 X223.206 Y134.144
G1 X223.151 Y134.401
G1 X222.998 Y134.936
G1 X222.71 Y135.562
G1 X222.608 Y135.636
G1 X222.565 Y135.638
G1 X222.465 Y135.591
G1 X222.323 Y135.464
G1 X222.302 Y135.299
G1 X222.625 Y134.886
G1 X223.07 Y134.084
G1 X223.199 Y133.735
G1 X223.221 Y133.472
G1 X223.214 Y133.189
G1 X223.141 Y132.824
G1 X223.03 Y132.529
G1 X222.893 Y132.308
G1 X222.546 Y131.912
G1 X222.409 Y131.804
G1 X222.458 Y131.746
G1 X222.598 Y131.448
G1 X222.99 Y131.624
G1 X223.619 Y132.088
G1 X223.993 Y132.188
G1 X224.747 Y132.062
G1 X225.166 Y132.014
G1 X225.287 Y132.016
G1 X225.372 Y132.066
G1 X225.42 Y132.16
G1 X225.444 Y132.461
G1 X225.434 Y132.501
G1 X225.381 Y132.567
G1 X225.193 Y132.685
G1 X224.04 Y133.183
M400
M86 B1 D0
G0 F4800 X223.383 Y133.722
; TYPE:FILL
M400
M86 B1 D1
G1 F336 X223.382 Y133.579
G1 X223.234 Y133.149
G1 X223.721 Y133.353
G1 X223.12 Y132.186
G1 X224.457 Y132.958
G1 X223.977 Y132.194
G1 X224.852 Y132.787
G1 X224.493 Y132.145
G1 X225.237 Y132.605
G1 X224.988 Y132.074
G1 X224.777 Y132.711
G1 X222.558 Y131.624
G1 X223.503 Y133.7
G1 X223.03 Y134.36
G1 X223.035 Y134.647
G1 X222.784 Y134.679
G1 X222.891 Y135.069
G1 X222.565 Y135.025
G1 X222.709 Y135.452
G1 X222.379 Y135.263
; Layer Change GCode
; LAYER:9
M400
M86 B1 D0
;M87 B1 D1
;M87 B1 D1
;M87 B2 D1
;M87 B3 D1
;M87 B4 D1
;M87 B5 D1
;M87 B6 D1
;M87 B7 D1
G0 Z2.85
G0 F4800 X223.272 Y134.186 Z2.95
; TYPE:WALL-OUTER
G0 Z0.95
M400
;M87 B1 D0
M78 B1 D1
M400
M86 B1 D1
G1 F336 X223.243 Y134.593
G1 X223.123 Y135.041
G1 X222.837 Y135.619
G1 X222.769 Y135.697
G1 X222.62 Y135.756
G1 X222.524 Y135.755
G1 X222.264 Y135.643
G1 X222.152 Y135.532
G1 X222.189 Y135.401
G1 X222.191 Y135.334
G1 X222.62 Y134.807
G1 X222.922 Y134.318
G1 X223.193 Y133.803
G1 X223.206 Y133.285
G1 X223.132 Y132.974
G1 X223.012 Y132.644
G1 X222.83 Y132.348
G1 X222.509 Y131.991
G1 X222.341 Y131.844
G1 X222.296 Y131.771
G1 X222.461 Y131.454
G1 X222.547 Y131.35
G1 X222.567 Y131.349
G1 X222.768 Y131.416
G1 X223.011 Y131.541
G1 X223.348 Y131.836
G1 X223.675 Y132.079
G1 X223.962 Y132.163
G1 X224.159 Y132.151
G1 X224.493 Y132.072
G1 X224.997 Y131.981
G1 X225.288 Y131.977
G1 X225.414 Y132.035
G1 X225.542 Y132.254
G1 X225.576 Y132.451
G1 X225.567 Y132.533
G1 X225.492 Y132.659
G1 X225.256 Y132.813
G1 X224.59 Y133.103
G1 X224.216 Y133.237
G1 X223.891 Y133.418
M400
M86 B1 D0
G0 F4800 X223.173 Y134.16
; TYPE:WALL-INNER
M400
M86 B1 D1
G1 F336 X223.144 Y134.575
G1 X223.028 Y135.006
G1 X222.753 Y135.564
G1 X222.71 Y135.613
G1 X222.601 Y135.656
G1 X222.545 Y135.655
G1 X222.317 Y135.557
G1 X222.266 Y135.517
G1 X222.29 Y135.371
G1 X222.601 Y134.988
M400
M86 B1 D0
G0 F4800 X223.151 Y134.149
M400
M86 B1 D1
G1 F336 X223.308 Y133.835
M400
M86 B1 D0
G0 F4800 X223.292 Y133.828
M400
M86 B1 D1
G1 F336 X223.306 Y133.274
G1 X223.228 Y132.945
G1 X223.103 Y132.6
G1 X222.911 Y132.288
G1 X222.579 Y131.92
G1 X222.411 Y131.767
G1 X222.549 Y131.503
G1 X222.585 Y131.46
G1 X222.727 Y131.508
G1 X222.956 Y131.625
G1 X223.285 Y131.914
G1 X223.63 Y132.17
G1 X223.951 Y132.264
G1 X224.174 Y132.25
G1 X224.508 Y132.171
G1 X225.01 Y132.081
G1 X225.266 Y132.077
G1 X225.347 Y132.115
G1 X225.445 Y132.286
G1 X225.471 Y132.5
G1 X225.419 Y132.587
G1 X225.208 Y132.725
G1 X224.551 Y133.011
G1 X224.175 Y133.146
G1 X224.078 Y133.199
M400
M86 B1 D0
G0 F4800 X223.336 Y133.61
; TYPE:FILL
M400
M86 B1 D1
G1 F336 X224.948 Y132.14
G1 X224.308 Y133.062
G1 X225.375 Y132.278
G1 X224.739 Y132.49
G1 X223.321 Y133.2
G1 X223.957 Y132.282
G1 X223.201 Y132.755
G1 X223.528 Y132.145
G1 X223.012 Y132.378
G1 X223.209 Y131.899
G1 X222.761 Y132.063
G1 X222.893 Y131.649
G1 X222.563 Y131.696
G1 X222.842 Y132.973
G1 X222.983 Y134.67
G1 X222.4 Y135.536
G1 X222.889 Y135.189
; Layer Change GCode
; LAYER:10
M400
M86 B1 D0
;M87 B1 D1
;M87 B1 D1
;M87 B2 D1
;M87 B3 D1
;M87 B4 D1
;M87 B5 D1
;M87 B6 D1
;M87 B7 D1
G0 Z2.95
G0 F4800 X223.299 Y133.88 Z3.05
; TYPE:WALL-OUTER
G0 Z1.05
M400
;M87 B1 D0
M78 B1 D1
M400
M86 B1 D1
G1 F336 X223.327 Y133.866
M400
M86 B1 D0
G0 F4800 X223.299 Y133.866
M400
M86 B1 D1
G1 F336 X223.308 Y133.457
G1 X223.239 Y133.11
G1 X223.137 Y132.848
G1 X222.864 Y132.361
G1 X222.324 Y131.777
G1 X222.318 Y131.718
G1 X222.44 Y131.491
G1 X222.567 Y131.399
G1 X222.649 Y131.407
G1 X222.896 Y131.492
G1 X223.057 Y131.606
G1 X223.483 Y132.018
G1 X223.694 Y132.162
G1 X223.939 Y132.235
G1 X224.186 Y132.221
G1 X224.837 Y132.067
G1 X225.098 Y132.032
G1 X225.296 Y132.049
G1 X225.444 Y132.126
G1 X225.526 Y132.247
G1 X225.595 Y132.466
G1 X225.573 Y132.606
G1 X225.501 Y132.693
G1 X225.261 Y132.858
G1 X224.533 Y133.168
G1 X224.281 Y133.244
G1 X224.171 Y133.298
M400
M86 B1 D0
G0 F4800 X223.403 Y133.699
; TYPE:WALL-INNER
M400
M86 B1 D1
G1 F336 X223.408 Y133.448
G1 X223.336 Y133.082
G1 X223.228 Y132.805
G1 X222.945 Y132.302
G1 X222.422 Y131.735
G1 X222.52 Y131.553
G1 X222.588 Y131.501
G1 X222.853 Y131.583
G1 X222.993 Y131.682
G1 X223.42 Y132.096
G1 X223.651 Y132.253
G1 X223.927 Y132.336
G1 X224.202 Y132.32
G1 X224.85 Y132.166
G1 X225.102 Y132.132
G1 X225.266 Y132.146
G1 X225.375 Y132.203
G1 X225.435 Y132.292
G1 X225.493 Y132.509
G1 X225.481 Y132.559
G1 X225.434 Y132.617
G1 X225.209 Y132.771
G1 X224.501 Y133.073
G1 X224.244 Y133.151
G1 X224.235 Y133.155
M400
M86 B1 D0
G0 F4800 X223.477 Y133.533
; TYPE:FILL
M400
M86 B1 D1
G1 F336 X223.553 Y133.468
G1 X223.606 Y133.238
G1 X223.438 Y132.504
G1 X224.517 Y133.017
G1 X224.139 Y132.357
G1 X224.917 Y132.851
G1 X224.611 Y132.263
G1 X225.29 Y132.659
G1 X225.1 Y132.187
G1 X224.804 Y132.739
G1 X222.56 Y131.626
G1 X223.606 Y133.711
G1 X223.182 Y134.193
G1 X223.162 Y134.263
M400
M86 B1 D0
G0 F4800 X223.201 Y134.263
; TYPE:WALL-OUTER
M400
M86 B1 D1
G1 F336 X223.199 Y134.385
G1 X223.234 Y134.455
G1 X223.254 Y134.611
G1 X223.22 Y134.859
G1 X223.129 Y135.147
G1 X222.848 Y135.714
G1 X222.619 Y135.801
G1 X222.512 Y135.768
G1 X222.217 Y135.636
G1 X222.116 Y135.559
G1 X222.128 Y135.496
G1 X222.261 Y135.305
G1 X222.495 Y135.036
M400
M86 B1 D0
G0 F4800 X223.1 Y134.409
; TYPE:WALL-INNER
M400
M86 B1 D1
G1 F336 X223.093 Y134.417
G1 X223.083 Y134.428
M400
M86 B1 D0
G0 F4800 X223.104 Y134.418
M400
M86 B1 D1
G1 F336 X223.137 Y134.485
G1 X223.153 Y134.611
G1 X223.122 Y134.838
G1 X223.036 Y135.109
G1 X222.773 Y135.64
G1 X222.619 Y135.696
G1 X222.269 Y135.55
G1 X222.232 Y135.522
G1 X222.336 Y135.371
G1 X222.455 Y135.234
M400
M86 B1 D0
G0 F4800 X222.939 Y134.692
; TYPE:FILL
M400
M86 B1 D1
G1 F336 X223.046 Y134.941
G1 X222.762 Y134.939
G1 X222.876 Y135.337
G1 X222.503 Y135.245
G1 X222.559 Y135.585
G1 X222.308 Y135.475
; Layer Change GCode
; LAYER:11
M400
M86 B1 D0
;M87 B1 D1
;M87 B1 D1
;M87 B2 D1
;M87 B3 D1
;M87 B4 D1
;M87 B5 D1
;M87 B6 D1
;M87 B7 D1
G0 Z3.05
G0 F4800 X223.313 Y133.139 Z3.15
; TYPE:WALL-OUTER
G0 Z1.15
M400
;M87 B1 D0
M78 B1 D1
M400
M86 B1 D1
G1 F336 X223.166 Y132.831
G1 X222.896 Y132.393
G1 X222.381 Y131.763
G1 X222.373 Y131.689
G1 X222.427 Y131.566
G1 X222.54 Y131.461
G1 X222.613 Y131.437
G1 X222.898 Y131.511
G1 X223.094 Y131.67
G1 X223.446 Y132.046
G1 X223.654 Y132.21
G1 X223.912 Y132.309
G1 X224.211 Y132.291
G1 X224.417 Y132.229
G1 X225.023 Y132.097
G1 X225.139 Y132.091
G1 X225.402 Y132.154
G1 X225.467 Y132.211
G1 X225.541 Y132.313
G1 X225.621 Y132.494
G1 X225.633 Y132.569
G1 X225.543 Y132.727
G1 X225.339 Y132.872
G1 X224.817 Y133.103
G1 X224.306 Y133.267
G1 X223.878 Y133.445
M400
M86 B1 D0
G0 F4800 X223.489 Y133.512
; TYPE:WALL-INNER
M400
M86 B1 D1
G1 F336 X223.483 Y133.422
G1 X223.408 Y133.106
G1 X223.254 Y132.783
G1 X222.977 Y132.334
G1 X222.477 Y131.722
G1 X222.509 Y131.626
G1 X222.616 Y131.541
G1 X222.851 Y131.603
G1 X223.029 Y131.746
G1 X223.378 Y132.12
G1 X223.604 Y132.298
G1 X223.897 Y132.41
G1 X224.228 Y132.39
G1 X224.445 Y132.325
G1 X225.037 Y132.196
G1 X225.131 Y132.192
G1 X225.353 Y132.244
G1 X225.455 Y132.365
G1 X225.529 Y132.55
G1 X225.466 Y132.659
G1 X225.292 Y132.783
G1 X224.776 Y133.011
G1 X224.492 Y133.102
M400
M86 B1 D0
G0 F4800 X223.535 Y133.509
M400
M86 B1 D1
G1 F336 X223.499 Y133.532
G1 X223.506 Y133.471
G1 X224.799 Y132.288
G1 X224.208 Y133.163
G1 X225.333 Y132.32
G1 X224.553 Y132.675
G1 X223.432 Y133.09
G1 X223.824 Y132.415
G1 X223.25 Y132.706
G1 X223.447 Y132.226
G1 X223.033 Y132.357
G1 X223.16 Y131.947
G1 X222.786 Y132.039
G1 X222.863 Y131.679
G1 X222.595 Y131.806
M400
M86 B1 D0
G0 Z3.15
G0 F4800 X222.716 Y135.843
; TYPE:WALL-OUTER
G0 Z1.15
M400
M86 B1 D1
G1 F336 X222.503 Y135.777
G1 X222.129 Y135.602
G1 X222.124 Y135.536
G1 X222.262 Y135.362
G1 X222.87 Y134.7
G1 X223.001 Y134.516
G1 X223.061 Y134.48
G1 X223.152 Y134.467
G1 X223.201 Y134.517
G1 X223.26 Y134.685
G1 X223.239 Y134.897
G1 X223.203 Y135.022
M400
M86 B1 D0
G0 F4800 X222.723 Y135.741
; TYPE:WALL-INNER
M400
M86 B1 D1
G1 F336 X222.542 Y135.685
G1 X222.244 Y135.546
G1 X222.948 Y134.763
G1 X223.093 Y134.576
G1 X223.11 Y134.574
G1 X223.159 Y134.697
G1 X223.141 Y134.875
M400
M86 B1 D0
G0 F4800 X222.677 Y135.683
; TYPE:FILL
M400
M86 B1 D1
G1 F336 X222.67 Y135.549
G1 X223.055 Y134.881
G1 X222.696 Y135.099
; Layer Change GCode
; LAYER:12
M400
M86 B1 D0
;M87 B1 D1
;M87 B1 D1
;M87 B2 D1
;M87 B3 D1
;M87 B4 D1
;M87 B5 D1
;M87 B6 D1
;M87 B7 D1
G0 Z3.15
G0 F4800 X223.935 Y132.383 Z3.25
; TYPE:WALL-OUTER
G0 Z1.25
M400
;M87 B1 D0
M78 B1 D1
M400
M86 B1 D1
G1 F336 X224.131 Y132.374
G1 X224.935 Y132.201
G1 X225.205 Y132.174
G1 X225.431 Y132.237
G1 X225.495 Y132.3
G1 X225.653 Y132.532
G1 X225.668 Y132.642
G1 X225.628 Y132.724
G1 X225.565 Y132.79
G1 X225.455 Y132.863
G1 X224.834 Y133.143
G1 X224.583 Y133.208
G1 X223.699 Y133.504
G1 X223.565 Y133.516
G1 X223.507 Y133.465
G1 X223.454 Y133.381
G1 X223.386 Y133.16
G1 X223.248 Y132.912
G1 X222.714 Y132.183
G1 X222.543 Y131.972
G1 X222.44 Y131.766
G1 X222.443 Y131.674
G1 X222.464 Y131.61
G1 X222.585 Y131.489
G1 X222.65 Y131.477
G1 X222.868 Y131.518
G1 X223.064 Y131.672
G1 X223.162 Y131.783
M400
M86 B1 D0
G0 F4800 X223.922 Y132.484
; TYPE:WALL-INNER
M400
M86 B1 D1
G1 F336 X224.146 Y132.473
G1 X224.955 Y132.299
G1 X225.196 Y132.275
G1 X225.38 Y132.326
G1 X225.56 Y132.574
G1 X225.571 Y132.612
G1 X225.498 Y132.716
G1 X225.408 Y132.775
G1 X224.802 Y133.048
G1 X224.554 Y133.112
G1 X223.675 Y133.407
G1 X223.599 Y133.413
G1 X223.545 Y133.336
G1 X223.479 Y133.121
G1 X223.333 Y132.859
G1 X222.793 Y132.121
G1 X222.63 Y131.921
G1 X222.54 Y131.742
G1 X222.552 Y131.665
G1 X222.65 Y131.578
G1 X222.824 Y131.611
G1 X222.997 Y131.747
G1 X223.136 Y131.904
M400
M86 B1 D0
G0 F4800 X223.867 Y132.508
; TYPE:FILL
M400
M86 B1 D1
G1 F336 X224.353 Y133.136
G1 X222.67 Y131.736
G1 X223.93 Y133.278
G1 X223.77 Y132.695
G1 X224.784 Y133.001
G1 X224.501 Y132.436
G1 X225.181 Y132.833
G1 X224.975 Y132.343
G1 X225.463 Y132.69
M400
M86 B1 D0
G0 Z3.25
G0 F4800 X222.136 Y135.566
; TYPE:WALL-OUTER
G0 Z1.25
M400
M86 B1 D1
G1 F336 X222.641 Y135.013
G1 X223.004 Y134.661
G1 X223.139 Y134.6
G1 X223.2 Y134.639
G1 X223.24 Y134.697
G1 X223.268 Y134.799
G1 X223.247 Y135.001
G1 X223.094 Y135.501
G1 X222.983 Y135.741
M400
M86 B1 D0
G0 F4800 X222.268 Y135.566
; TYPE:WALL-INNER
M400
M86 B1 D1
G1 F336 X222.71 Y135.085
M400
M86 B1 D0
G0 F4800 X223.095 Y134.731
M400
M86 B1 D1
G1 F336 X223.129 Y134.714
M400
M86 B1 D0
G0 F4800 X223.13 Y134.717
M400
M86 B1 D1
G1 F336 X223.167 Y134.812
G1 X223.148 Y134.982
G1 X223.003 Y135.46
M400
M86 B1 D0
G0 F4800 X222.358 Y135.526
; TYPE:FILL
M400
M86 B1 D1
G1 F336 X222.468 Y135.494
G1 X222.877 Y135.619
G1 X222.697 Y135.158
G1 X223.035 Y135.212
G1 X222.993 Y134.887
G1 X223.119 Y134.872
; Layer Change GCode
; LAYER:13
M400
M86 B1 D0
;M87 B1 D1
;M87 B1 D1
;M87 B2 D1
;M87 B3 D1
;M87 B4 D1
;M87 B5 D1
;M87 B6 D1
;M87 B7 D1
G0 Z3.25
G0 F4800 X223.942 Y132.452 Z3.35
; TYPE:WALL-OUTER
G0 Z1.35
M400
;M87 B1 D0
M78 B1 D1
M400
M86 B1 D1
G1 F336 X224.098 Y132.448
G1 X224.861 Y132.298
G1 X225.219 Y132.269
G1 X225.384 Y132.297
G1 X225.469 Y132.347
G1 X225.638 Y132.52
G1 X225.711 Y132.67
G1 X225.697 Y132.737
G1 X225.64 Y132.805
G1 X225.506 Y132.896
G1 X224.939 Y133.148
G1 X224.642 Y133.204
G1 X224.164 Y133.348
G1 X223.734 Y133.434
G1 X223.593 Y133.4
G1 X223.492 Y133.302
G1 X223.457 Y133.199
G1 X223.261 Y132.857
G1 X222.913 Y132.462
G1 X222.569 Y131.989
G1 X222.499 Y131.781
G1 X222.507 Y131.641
G1 X222.593 Y131.529
G1 X222.658 Y131.491
G1 X222.739 Y131.488
G1 X222.822 Y131.506
G1 X223.077 Y131.71
G1 X223.183 Y131.841
M400
M86 B1 D0
G0 F4800 X223.928 Y132.553
; TYPE:WALL-INNER
M400
M86 B1 D1
G1 F336 X224.108 Y132.548
G1 X224.872 Y132.398
G1 X225.214 Y132.37
G1 X225.351 Y132.394
G1 X225.407 Y132.427
G1 X225.554 Y132.577
G1 X225.606 Y132.684
G1 X225.573 Y132.73
G1 X225.456 Y132.809
G1 X224.909 Y133.052
G1 X224.618 Y133.107
G1 X224.135 Y133.252
G1 X223.736 Y133.332
G1 X223.643 Y133.309
G1 X223.579 Y133.248
G1 X223.548 Y133.158
G1 X223.343 Y132.799
G1 X222.987 Y132.395
G1 X222.659 Y131.942
G1 X222.601 Y131.767
G1 X222.605 Y131.677
G1 X222.686 Y131.591
G1 X222.73 Y131.589
G1 X222.778 Y131.599
G1 X223.005 Y131.782
G1 X223.153 Y131.964
M400
M86 B1 D0
G0 F4800 X223.82 Y132.561
; TYPE:FILL
M400
M86 B1 D1
G1 F336 X223.404 Y132.835
G1 X223.531 Y132.425
G1 X223.151 Y132.522
G1 X223.249 Y132.142
G1 X222.9 Y132.207
G1 X222.987 Y131.837
G1 X222.685 Y131.857
G1 X223.418 Y132.113
G1 X223.616 Y133.188
G1 X224.596 Y132.492
G1 X224.183 Y133.187
G1 X225.221 Y132.432
G1 X224.977 Y132.959
G1 X225.493 Y132.585
M400
M86 B1 D0
G0 Z3.35
G0 F4800 X222.799 Y135.945
; TYPE:WALL-OUTER
G0 Z1.35
M400
M86 B1 D1
G1 F336 X222.516 Y135.814
G1 X222.177 Y135.617
G1 X222.181 Y135.557
G1 X222.636 Y135.087
G1 X223.001 Y134.764
G1 X223.134 Y134.725
G1 X223.194 Y134.754
G1 X223.242 Y134.812
G1 X223.273 Y134.947
G1 X223.264 Y135.037
G1 X223.243 Y135.114
M400
M86 B1 D0
G0 F4800 X222.817 Y135.844
; TYPE:WALL-INNER
M400
M86 B1 D1
G1 F336 X222.569 Y135.729
G1 X222.303 Y135.574
G1 X222.707 Y135.157
G1 X223.05 Y134.854
G1 X223.126 Y134.832
G1 X223.15 Y134.857
G1 X223.172 Y134.954
M400
M86 B1 D0
G0 F4800 X222.648 Y135.713
; TYPE:FILL
M400
M86 B1 D1
G1 F336 X223.085 Y135.133
G1 X222.46 Y135.618
; Layer Change GCode
; LAYER:14
M400
M86 B1 D0
;M87 B1 D1
;M87 B1 D1
;M87 B2 D1
;M87 B3 D1
;M87 B4 D1
;M87 B5 D1
;M87 B6 D1
;M87 B7 D1
G0 Z3.35
G0 F4800 X223.958 Y132.535 Z3.45
; TYPE:WALL-OUTER
G0 Z1.45
M400
;M87 B1 D0
M78 B1 D1
M400
M86 B1 D1
G1 F336 X224.285 Y132.512
G1 X224.976 Y132.353
G1 X225.202 Y132.355
G1 X225.401 Y132.399
G1 X225.536 Y132.474
G1 X225.719 Y132.674
G1 X225.747 Y132.769
G1 X225.586 Y132.912
G1 X225.23 Y133.08
G1 X224.87 Y133.205
G1 X224.595 Y133.234
G1 X223.885 Y133.359
G1 X223.689 Y133.355
G1 X223.551 Y133.261
G1 X223.294 Y132.86
G1 X222.907 Y132.476
G1 X222.627 Y132.054
G1 X222.542 Y131.785
G1 X222.547 Y131.649
G1 X222.578 Y131.57
G1 X222.653 Y131.506
G1 X222.788 Y131.521
G1 X222.904 Y131.59
G1 X223.007 Y131.686
G1 X223.2 Y131.926
M400
M86 B1 D0
G0 F4800 X223.947 Y132.636
; TYPE:WALL-INNER
M400
M86 B1 D1
G1 F336 X224.3 Y132.611
G1 X224.986 Y132.453
G1 X225.19 Y132.455
G1 X225.367 Y132.494
G1 X225.474 Y132.553
G1 X225.634 Y132.736
G1 X225.532 Y132.826
G1 X225.191 Y132.987
G1 X224.844 Y133.108
G1 X224.581 Y133.135
G1 X223.875 Y133.259
G1 X223.721 Y133.256
G1 X223.624 Y133.189
G1 X223.372 Y132.797
G1 X222.982 Y132.409
G1 X222.718 Y132.011
G1 X222.643 Y131.773
G1 X222.661 Y131.629
G1 X222.682 Y131.609
G1 X222.754 Y131.617
G1 X222.844 Y131.671
G1 X222.931 Y131.751
G1 X223.172 Y132.05
M400
M86 B1 D0
G0 F4800 X224.027 Y132.669
; TYPE:FILL
M400
M86 B1 D1
G1 F336 X224.351 Y133.134
G1 X223.634 Y132.842
G1 X223.849 Y133.198
G1 X222.74 Y131.806
G1 X223.695 Y132.337
G1 X224.836 Y133.053
G1 X224.638 Y132.573
G1 X225.256 Y132.908
G1 X225.136 Y132.506
G1 X225.541 Y132.769
M400
M86 B1 D0
G0 Z3.45
G0 F4800 X222.854 Y135.973
; TYPE:WALL-OUTER
G0 Z1.45
M400
M86 B1 D1
G1 F336 X222.799 Y135.966
G1 X222.325 Y135.726
G1 X222.22 Y135.636
G1 X222.212 Y135.567
G1 X222.696 Y135.096
G1 X223.02 Y134.86
G1 X223.132 Y134.838
G1 X223.202 Y134.863
G1 X223.266 Y134.978
G1 X223.258 Y135.134
M400
M86 B1 D0
G0 F4800 X222.382 Y135.643
; TYPE:WALL-INNER
M400
M86 B1 D1
G1 F336 X222.829 Y135.869
G1 X222.924 Y135.852
G1 X223.012 Y135.742
G1 X223.054 Y135.654
G1 X223.154 Y135.206
G1 X223.165 Y135.001
G1 X223.123 Y134.941
G1 X223.062 Y134.954
M400
M86 B1 D0
G0 F4800 X222.325 Y135.594
M400
M86 B1 D1
G1 F336 X222.379 Y135.594
G1 X222.515 Y135.541
G1 X222.966 Y135.709
G1 X222.767 Y135.228
G1 X223.093 Y135.27
G1 X223.007 Y135.043
; Layer Change GCode
; LAYER:15
M400
M86 B1 D0
;M87 B1 D1
;M87 B1 D1
;M87 B2 D1
;M87 B3 D1
;M87 B4 D1
;M87 B5 D1
;M87 B6 D1
;M87 B7 D1
G0 Z3.45
G0 F4800 X223.855 Y132.613 Z3.55
; TYPE:WALL-OUTER
G0 Z1.55
M400
;M87 B1 D0
M78 B1 D1
M400
M86 B1 D1
G1 F336 X224.386 Y132.624
G1 X225.059 Y132.424
G1 X225.422 Y132.492
G1 X225.611 Y132.602
G1 X225.745 Y132.746
G1 X225.771 Y132.812
G1 X225.749 Y132.861
G1 X225.629 Y132.949
G1 X225.386 Y133.063
G1 X225.168 Y133.118
G1 X224.887 Y133.238
G1 X224.814 Y133.248
G1 X224.54 Y133.224
G1 X224.285 Y133.246
G1 X224.004 Y133.295
G1 X223.711 Y133.276
G1 X223.595 Y133.19
G1 X223.423 Y132.942
G1 X222.822 Y132.378
G1 X222.65 Y132.067
G1 X222.584 Y131.79
G1 X222.619 Y131.585
G1 X222.694 Y131.553
G1 X222.851 Y131.59
G1 X222.931 Y131.655
G1 X223.165 Y131.948
M400
M86 B1 D0
G0 F4800 X223.838 Y132.712
; TYPE:WALL-INNER
M400
M86 B1 D1
G1 F336 X224.4 Y132.724
G1 X225.064 Y132.526
G1 X225.385 Y132.587
G1 X225.55 Y132.682
G1 X225.659 Y132.8
G1 X225.579 Y132.861
G1 X225.35 Y132.969
G1 X225.138 Y133.023
G1 X224.855 Y133.142
G1 X224.54 Y133.123
G1 X224.272 Y133.147
G1 X223.998 Y133.194
G1 X223.747 Y133.178
G1 X223.667 Y133.119
G1 X223.5 Y132.877
G1 X222.902 Y132.316
G1 X222.743 Y132.03
G1 X222.686 Y131.789
G1 X222.709 Y131.655
G1 X222.801 Y131.679
G1 X222.86 Y131.726
G1 X223.089 Y132.013
G1 X223.115 Y132.049
M400
M86 B1 D0
G0 F4800 X223.911 Y132.753
; TYPE:FILL
M400
M86 B1 D1
G1 F336 X223.725 Y133.079
G1 X224.34 Y132.747
G1 X224.256 Y133.114
G1 X225.048 Y132.605
G1 X224.887 Y133.049
G1 X225.494 Y132.725
G1 X224.598 Y132.772
G1 X223.457 Y132.782
G1 X223.441 Y132.515
G1 X223.165 Y132.508
G1 X223.179 Y132.211
G1 X222.894 Y132.214
G1 X222.937 Y131.887
G1 X222.759 Y131.925
M400
M86 B1 D0
G0 Z3.55
G0 F4800 X222.809 Y135.982
; TYPE:WALL-OUTER
G0 Z1.55
M400
M86 B1 D1
G1 F336 X222.232 Y135.675
G1 X222.229 Y135.592
G1 X222.6 Y135.235
G1 X222.838 Y135.057
G1 X223.008 Y134.966
G1 X223.143 Y134.936
G1 X223.225 Y134.99
G1 X223.267 Y135.1
G1 X223.27 Y135.301
M400
M86 B1 D0
G0 F4800 X222.831 Y135.881
; TYPE:WALL-INNER
M400
M86 B1 D1
G1 F336 X222.341 Y135.622
G1 X222.662 Y135.314
G1 X222.893 Y135.14
G1 X223.045 Y135.059
G1 X223.129 Y135.041
G1 X223.167 Y135.118
M400
M86 B1 D0
G0 F4800 X222.816 Y135.828
; TYPE:FILL
M400
M86 B1 D1
G1 F336 X223.1 Y135.402
G1 X222.538 Y135.68
G1 X222.875 Y135.203
; Layer Change GCode
; LAYER:16
M400
M86 B1 D0
;M87 B1 D1
;M87 B1 D1
;M87 B2 D1
;M87 B3 D1
;M87 B4 D1
;M87 B5 D1
;M87 B6 D1
;M87 B7 D1
G0 Z3.55
G0 F4800 X224.802 Y133.235 Z3.65
; TYPE:WALL-OUTER
G0 Z1.65
M400
;M87 B1 D0
M78 B1 D1
M400
M86 B1 D1
G1 F336 X224.318 Y133.177
G1 X224.02 Y133.231
G1 X223.669 Y133.161
G1 X223.536 Y132.931
G1 X223.092 Y132.617
G1 X222.821 Y132.388
G1 X222.666 Y132.045
G1 X222.632 Y131.818
G1 X222.655 Y131.698
G1 X222.718 Y131.64
G1 X222.794 Y131.631
G1 X222.879 Y131.673
G1 X223.07 Y131.895
G1 X223.351 Y132.32
G1 X223.543 Y132.557
G1 X223.726 Y132.682
G1 X224.001 Y132.755
G1 X224.472 Y132.763
G1 X225.057 Y132.499
G1 X225.382 Y132.553
G1 X225.685 Y132.703
G1 X225.748 Y132.773
G1 X225.78 Y132.835
G1 X225.781 Y132.912
G1 X225.746 Y132.933
M400
M86 B1 D0
G0 F4800 X225.621 Y132.781
; TYPE:WALL-INNER
M400
M86 B1 D1
G1 F336 X225.353 Y132.65
G1 X225.069 Y132.603
G1 X224.497 Y132.862
G1 X224.24 Y132.869
G1 X223.985 Y132.854
G1 X223.684 Y132.774
G1 X223.474 Y132.631
G1 X223.27 Y132.379
G1 X222.993 Y131.959
G1 X222.816 Y131.753
G1 X222.776 Y131.733
G1 X222.762 Y131.735
G1 X222.734 Y131.819
G1 X222.763 Y132.018
G1 X222.903 Y132.326
G1 X223.34 Y132.682
G1 X223.611 Y132.86
G1 X223.735 Y133.074
G1 X224.013 Y133.13
G1 X224.315 Y133.076
G1 X224.722 Y133.125
M400
M86 B1 D0
G0 F4800 X225.678 Y132.856
M400
M86 B1 D1
G1 F336 X225.532 Y132.875
G1 X225.033 Y132.685
G1 X225.072 Y133.007
G1 X224.628 Y132.846
G1 X223.982 Y132.765
G1 X223.248 Y132.456
G1 X223.934 Y133.071
G1 X223.869 Y132.864
G1 X224.204 Y133.058
G1 X224.185 Y132.898
G1 X224.433 Y133.004
G1 X224.403 Y132.903
M400
M86 B1 D0
G0 Z3.65
G0 F4800 X223.048 Y136.024
; TYPE:WALL-OUTER
G0 Z1.65
M400
M86 B1 D1
G1 F336 X222.833 Y136.001
G1 X222.237 Y135.697
G1 X222.241 Y135.617
G1 X222.673 Y135.225
G1 X222.997 Y135.042
G1 X223.145 Y135.031
G1 X223.201 Y135.055
G1 X223.237 Y135.118
M400
M86 B1 D0
G0 F4800 X223.06 Y135.918
; TYPE:WALL-INNER
M400
M86 B1 D1
G1 F336 X222.863 Y135.904
G1 X222.358 Y135.647
G1 X222.738 Y135.302
G1 X222.953 Y135.181
M400
M86 B1 D0
G0 F4800 X222.984 Y135.868
; TYPE:FILL
M400
M86 B1 D1
G1 F336 X222.523 Y135.549
G1 X222.63 Y135.515
G1 X223.108 Y135.568
G1 X223.02 Y135.197
G1 X223.128 Y135.164
; Layer Change GCode
; LAYER:17
M400
M86 B1 D0
;M87 B1 D1
;M87 B1 D1
;M87 B2 D1
;M87 B3 D1
;M87 B4 D1
;M87 B5 D1
;M87 B6 D1
;M87 B7 D1
G0 Z3.65
G0 F4800 X223.535 Y132.831 Z3.75
; TYPE:WALL-OUTER
G0 Z1.75
M400
;M87 B1 D0
M78 B1 D1
M400
M86 B1 D1
G1 F336 X223.421 Y132.765
G1 X223.348 Y132.748
G1 X223.047 Y132.566
G1 X222.858 Y132.432
G1 X222.768 Y132.293
G1 X222.696 Y132.108
G1 X222.684 Y131.819
G1 X222.703 Y131.755
G1 X222.753 Y131.718
G1 X222.824 Y131.714
G1 X222.942 Y131.805
G1 X223.057 Y131.945
M400
M86 B1 D0
G0 F4800 X223.598 Y132.789
M400
M86 B1 D1
G1 F336 X223.591 Y132.811
G1 X223.178 Y132.446
G1 X222.812 Y131.879
G1 X222.79 Y131.816
M400
M86 B1 D0
G0 F4800 X222.874 Y131.878
; TYPE:WALL-INNER
M400
M86 B1 D1
G1 F336 X222.972 Y131.998
G1 X223.229 Y132.44
M400
M86 B1 D0
G0 Z3.75
G0 F4800 X223.645 Y132.864
; TYPE:FILL
G0 Z1.75
M400
M86 B1 D1
G1 F336 X223.677 Y132.898
G1 X223.654 Y132.887
M400
M86 B1 D0
G0 F4800 X223.652 Y132.858
M400
M86 B1 D1
G1 F336 X223.681 Y132.876
G1 X223.69 Y132.883
M400
M86 B1 D0
G0 Z3.75
G0 F4800 X224.321 Y132.975
; TYPE:WALL-OUTER
G0 Z1.75
M400
M86 B1 D1
G1 F336 X224.41 Y132.995
M400
M86 B1 D0
G0 F4800 X224.444 Y132.961
M400
M86 B1 D1
G1 F336 X224.545 Y132.904
G1 X224.603 Y132.851
G1 X224.953 Y132.632
G1 X225.083 Y132.577
G1 X225.381 Y132.615
G1 X225.607 Y132.688
G1 X225.694 Y132.749
G1 X225.834 Y132.917
G1 X225.817 Y132.982
G1 X225.754 Y133.012
G1 X225.342 Y133.122
M400
M86 B1 D0
G0 F4800 X224.576 Y133.001
; TYPE:WALL-INNER
M400
M86 B1 D1
G1 F336 X224.591 Y133.007
M400
M86 B1 D0
G0 F4800 X224.583 Y132.997
M400
M86 B1 D1
G1 F336 X225.001 Y132.72
G1 X225.097 Y132.679
G1 X225.359 Y132.713
G1 X225.562 Y132.778
G1 X225.625 Y132.822
G1 X225.706 Y132.92
G1 X225.582 Y132.953
M400
M86 B1 D0
G0 F4800 X224.779 Y133.016
; TYPE:FILL
M400
M86 B1 D1
G1 F336 X225.06 Y132.876
G1 X225.366 Y132.853
G1 X225.547 Y132.814
M400
M86 B1 D0
G0 Z3.75
G0 F4800 X223.101 Y136.074
; TYPE:WALL-OUTER
G0 Z1.75
M400
M86 B1 D1
G1 F336 X222.93 Y136.044
G1 X222.27 Y135.715
G1 X222.263 Y135.636
G1 X222.392 Y135.538
G1 X222.644 Y135.306
G1 X222.883 Y135.159
G1 X223.043 Y135.104
G1 X223.193 Y135.134
G1 X223.218 Y135.167
M400
M86 B1 D0
G0 F4800 X223.114 Y135.967
; TYPE:WALL-INNER
M400
M86 B1 D1
G1 F336 X222.956 Y135.947
G1 X222.391 Y135.665
G1 X222.703 Y135.388
G1 X222.925 Y135.251
M400
M86 B1 D0
G0 F4800 X223.013 Y135.913
; TYPE:FILL
M400
M86 B1 D1
G1 F336 X222.964 Y135.82
G1 X223.122 Y135.379
G1 X222.624 Y135.736
; Layer Change GCode
; LAYER:18
M400
M86 B1 D0
;M87 B1 D1
;M87 B1 D1
;M87 B2 D1
;M87 B3 D1
;M87 B4 D1
;M87 B5 D1
;M87 B6 D1
;M87 B7 D1
G0 Z3.75
G0 F4800 X223.218 Y132.614 Z3.85
; TYPE:WALL-OUTER
G0 Z1.85
M400
;M87 B1 D0
M78 B1 D1
M400
M86 B1 D1
G1 F336 X222.892 Y132.447
G1 X222.778 Y132.348
G1 X222.676 Y132.115
G1 X222.72 Y131.863
G1 X222.754 Y131.804
G1 X222.813 Y131.788
G1 X222.87 Y131.827
M400
M86 B1 D0
G0 F4800 X223.018 Y132.209
; TYPE:WALL-INNER
M400
M86 B1 D1
G1 F336 X223.167 Y132.476
M400
M86 B1 D0
G0 F4800 X222.813 Y131.91
M400
M86 B1 D1
G1 F336 X222.836 Y131.939
M400
M86 B1 D0
G0 F4800 X222.864 Y131.944
M400
M86 B1 D1
G1 F336 X222.971 Y132.072
M400
M86 B1 D0
G0 Z3.85
G0 F4800 X224.742 Y133.043
; TYPE:WALL-OUTER
G0 Z1.85
M400
M86 B1 D1
G1 F336 X224.729 Y132.989
G1 X224.811 Y132.868
G1 X225.139 Y132.654
G1 X225.358 Y132.672
G1 X225.605 Y132.736
G1 X225.772 Y132.848
G1 X225.869 Y132.939
G1 X225.86 Y133.01
G1 X225.712 Y133.051
M400
M86 B1 D0
G0 F4800 X224.845 Y132.993
; TYPE:WALL-INNER
M400
M86 B1 D1
G1 F336 X224.873 Y132.97
M400
M86 B1 D0
G0 F4800 X224.879 Y132.943
M400
M86 B1 D1
G1 F336 X225.16 Y132.757
G1 X225.342 Y132.771
G1 X225.565 Y132.83
G1 X225.636 Y132.881
M400
M86 B1 D0
G0 F4800 X225.069 Y132.863
; TYPE:FILL
M400
M86 B1 D1
G1 F336 X225.25 Y132.902
G1 X225.466 Y132.977
M400
M86 B1 D0
G0 Z3.85
G0 F4800 X222.424 Y135.58
; TYPE:WALL-OUTER
G0 Z1.85
M400
M86 B1 D1
G1 F336 X222.649 Y135.358
G1 X222.907 Y135.199
G1 X223.014 Y135.169
G1 X223.162 Y135.183
G1 X223.264 Y135.262
G1 X223.296 Y135.384
G1 X223.313 Y135.654
G1 X223.292 Y135.921
G1 X223.238 Y136.105
G1 X223.201 Y136.145
G1 X223.11 Y136.147
G1 X222.997 Y136.088
M400
M86 B1 D0
G0 F4800 X222.485 Y135.661
; TYPE:WALL-INNER
M400
M86 B1 D1
G1 F336 X222.712 Y135.437
G1 X222.946 Y135.292
G1 X223.027 Y135.27
G1 X223.124 Y135.279
G1 X223.176 Y135.32
G1 X223.197 Y135.4
G1 X223.212 Y135.655
G1 X223.2 Y135.819
M400
M86 B1 D0
G0 F4800 X222.476 Y135.678
M400
M86 B1 D1
G1 F336 X222.552 Y135.614
G1 X223.12 Y135.863
G1 X222.908 Y135.368
G1 X223.154 Y135.473
; Layer Change GCode
; LAYER:19
M400
M86 B1 D0
;M87 B1 D1
;M87 B1 D1
;M87 B2 D1
;M87 B3 D1
;M87 B4 D1
;M87 B5 D1
;M87 B6 D1
;M87 B7 D1
G0 Z3.85
G0 F4800 X223.166 Y132.498 Z3.95
; TYPE:WALL-OUTER
G0 Z1.95
M400
;M87 B1 D0
M78 B1 D1
M400
M86 B1 D1
G1 F336 X223.07 Y132.495
G1 X222.831 Y132.394
G1 X222.737 Y132.297
G1 X222.671 Y132.147
G1 X222.676 Y132.075
G1 X222.686 Y132.048
M400
M86 B1 D0
G0 F4800 X223.048 Y132.377
; TYPE:WALL-INNER
M400
M86 B1 D1
G1 F336 X222.89 Y132.31
M400
M86 B1 D0
G0 Z3.95
G0 F4800 X225.901 Y133.046
; TYPE:WALL-OUTER
G0 Z1.95
M400
M86 B1 D1
G1 F336 X225.463 Y133.162
G1 X225.076 Y133.095
G1 X224.965 Y133.033
G1 X225.007 Y132.878
G1 X225.058 Y132.839
M400
M86 B1 D0
G0 F4800 X225.761 Y132.987
; TYPE:WALL-INNER
M400
M86 B1 D1
G1 F336 X225.459 Y133.061
G1 X225.304 Y133.034
M400
M86 B1 D0
G0 Z3.95
G0 F4800 X222.459 Y135.614
; TYPE:WALL-OUTER
G0 Z1.95
M400
M86 B1 D1
G1 F336 X222.67 Y135.394
G1 X222.935 Y135.236
G1 X223.148 Y135.227
G1 X223.25 Y135.28
G1 X223.292 Y135.343
G1 X223.326 Y135.492
G1 X223.34 Y135.756
G1 X223.302 Y136.131
G1 X223.222 Y136.186
G1 X223.074 Y136.117
M400
M86 B1 D0
G0 F4800 X222.499 Y135.706
; TYPE:WALL-INNER
M400
M86 B1 D1
G1 F336 X222.732 Y135.473
G1 X222.965 Y135.335
G1 X223.124 Y135.328
G1 X223.182 Y135.358
G1 X223.226 Y135.502
G1 X223.24 Y135.76
G1 X223.229 Y135.877
M400
M86 B1 D0
G0 F4800 X222.631 Y135.73
; TYPE:FILL
M400
M86 B1 D1
G1 F336 X223.08 Y135.422
G1 X222.91 Y135.875
G1 X223.197 Y135.729
; Layer Change GCode
; LAYER:20
M400
M86 B1 D0
;M87 B1 D1
;M87 B1 D1
;M87 B2 D1
;M87 B3 D1
;M87 B4 D1
;M87 B5 D1
;M87 B6 D1
;M87 B7 D1
G0 Z3.95
G0 F4800 X222.974 Y132.407 Z4.05
; TYPE:WALL-OUTER
G0 Z2.05
M400
;M87 B1 D0
M78 B1 D1
M400
M86 B1 D1
G1 F336 X222.83 Y132.378
G1 X222.703 Y132.292
G1 X222.69 Y132.253
M400
M86 B1 D0
G0 F4800 X222.95 Y132.298
; TYPE:WALL-INNER
M400
M86 B1 D1
G1 F336 X222.902 Y132.272
M400
M86 B1 D0
G0 F4800 X222.869 Y132.284
M400
M86 B1 D1
G1 F336 X222.787 Y132.228
M400
M86 B1 D0
G0 F4800 X222.834 Y132.035
M400
M86 B1 D1
G1 F336 X222.859 Y132.076
G1 X222.936 Y132.26
M400
M86 B1 D0
G0 Z4.05
G0 F4800 X225.51 Y133.171
; TYPE:WALL-OUTER
G0 Z2.05
M400
M86 B1 D1
G1 F336 X225.278 Y133.13
G1 X225.216 Y133.095
G1 X225.156 Y133.027
G1 X225.185 Y132.889
G1 X225.251 Y132.837
G1 X225.442 Y132.814
M400
M86 B1 D0
G0 F4800 X225.519 Y133.071
; TYPE:WALL-INNER
M400
M86 B1 D1
G1 F336 X225.28 Y133.016
M400
M86 B1 D0
G0 Z4.05
G0 F4800 X223.253 Y136.186
; TYPE:WALL-OUTER
G0 Z2.05
M400
M86 B1 D1
G1 F336 X222.378 Y135.742
G1 X222.399 Y135.667
G1 X222.464 Y135.64
G1 X222.715 Y135.405
G1 X222.952 Y135.285
G1 X223.135 Y135.27
G1 X223.271 Y135.339
M400
M86 B1 D0
G0 F4800 X223.253 Y136.075
; TYPE:WALL-INNER
M400
M86 B1 D1
G1 F336 X222.534 Y135.711
G1 X222.773 Y135.488
G1 X222.892 Y135.428
M400
M86 B1 D0
G0 F4800 X223.227 Y135.828
; TYPE:FILL
M400
M86 B1 D1
G1 F336 X222.795 Y135.537
G1 X223.112 Y135.714
G1 X223.095 Y135.414
; Layer Change GCode
; LAYER:21
M400
M86 B1 D0
;M87 B1 D1
;M87 B1 D1
;M87 B2 D1
;M87 B3 D1
;M87 B4 D1
;M87 B5 D1
;M87 B6 D1
;M87 B7 D1
G0 Z4.05
G0 F4800 X222.778 Y132.356 Z4.15
; TYPE:WALL-OUTER
G0 Z2.15
M400
;M87 B1 D0
M78 B1 D1
M400
M86 B1 D1
G1 F336 X222.714 Y132.324
M400
M86 B1 D0
G0 F4800 X222.797 Y132.255
; TYPE:WALL-INNER
M400
M86 B1 D1
G1 F336 X222.872 Y132.246
G1 X222.873 Y132.246
G1 X222.869 Y132.223
G1 X222.842 Y132.211
G1 X222.805 Y132.166
G1 X222.819 Y132.191
G1 X222.818 Y132.16
G1 X222.822 Y132.121
M400
M86 B1 D0
G0 Z4.15
G0 F4800 X225.616 Y133.167
; TYPE:WALL-OUTER
G0 Z2.15
M400
M86 B1 D1
G1 F336 X225.379 Y133.125
G1 X225.309 Y133.081
G1 X225.304 Y133.029
G1 X225.358 Y132.907
M400
M86 B1 D0
G0 F4800 X225.645 Y133.032
; TYPE:WALL-INNER
M400
M86 B1 D1
G1 F336 X225.612 Y133.019
M400
M86 B1 D0
G0 F4800 X225.623 Y133.021
M400
M86 B1 D1
G1 F336 X225.638 Y133.025
G1 X225.684 Y133.009
G1 X225.75 Y133.043
M400
M86 B1 D0
G0 Z4.15
G0 F4800 X222.527 Y135.627
; TYPE:WALL-OUTER
G0 Z2.15
M400
M86 B1 D1
G1 F336 X222.75 Y135.422
G1 X222.937 Y135.334
G1 X223.049 Y135.315
G1 X223.198 Y135.318
G1 X223.311 Y135.392
G1 X223.366 Y135.542
G1 X223.408 Y135.87
G1 X223.378 Y136.169
G1 X223.335 Y136.187
G1 X223.27 Y136.173
G1 X223.143 Y136.111
M400
M86 B1 D0
G0 F4800 X222.571 Y135.716
; TYPE:WALL-INNER
M400
M86 B1 D1
G1 F336 X222.807 Y135.505
G1 X222.967 Y135.431
G1 X223.059 Y135.415
G1 X223.168 Y135.417
G1 X223.228 Y135.457
G1 X223.268 Y135.567
G1 X223.308 Y135.87
G1 X223.308 Y135.871
M400
M86 B1 D0
G0 F4800 X222.65 Y135.71
; TYPE:FILL
M400
M86 B1 D1
G1 F336 X222.801 Y135.701
G1 X223.209 Y135.575
G1 X223.029 Y135.898
; Layer Change GCode
; LAYER:22
M400
M86 B1 D0
;M87 B1 D1
;M87 B1 D1
;M87 B2 D1
;M87 B3 D1
;M87 B4 D1
;M87 B5 D1
;M87 B6 D1
;M87 B7 D1
G0 Z4.15
G0 F4800 X222.783 Y132.339 Z4.25
; TYPE:WALL-OUTER
G0 Z2.25
M400
;M87 B1 D0
M78 B1 D1
M400
M86 B1 D1
G1 F336 X222.74 Y132.334
M400
M86 B1 D0
G0 Z4.25
G0 F4800 X225.717 Y133.156
G0 Z2.25
M400
M86 B1 D1
G1 F336 X225.598 Y133.148
M400
M86 B1 D0
G0 F4800 X225.736 Y133.05
; TYPE:WALL-INNER
M400
M86 B1 D1
G1 F336 X225.681 Y133.025
M400
M86 B1 D0
G0 F4800 X225.708 Y133.037
M400
M86 B1 D1
G1 F336 X225.651 Y133.039
M400
M86 B1 D0
G0 F4800 X225.621 Y133.038
M400
M86 B1 D1
G1 F336 X225.577 Y133.029
M400
M86 B1 D0
G0 Z4.25
G0 F4800 X223.351 Y136.179
; TYPE:WALL-OUTER
G0 Z2.25
M400
M86 B1 D1
G1 F336 X222.489 Y135.77
G1 X222.478 Y135.686
G1 X222.764 Y135.454
G1 X222.94 Y135.368
G1 X223.156 Y135.341
M400
M86 B1 D0
G0 F4800 X223.319 Y136.063
; TYPE:WALL-INNER
M400
M86 B1 D1
G1 F336 X222.608 Y135.717
G1 X222.821 Y135.538
G1 X222.848 Y135.525
M400
M86 B1 D0
G0 F4800 X223.276 Y135.877
; TYPE:FILL
M400
M86 B1 D1
G1 F336 X222.842 Y135.586
G1 X223.083 Y135.685
G1 X223.182 Y135.501
; Layer Change GCode
; LAYER:23
M400
M86 B1 D0
;M87 B1 D1
;M87 B1 D1
;M87 B2 D1
;M87 B3 D1
;M87 B4 D1
;M87 B5 D1
;M87 B6 D1
;M87 B7 D1
G0 Z4.25
G0 F4800 X223.375 Y136.168 Z4.35
; TYPE:WALL-OUTER
G0 Z2.35
M400
;M87 B1 D0
M78 B1 D1
M400
M86 B1 D1
G1 F336 X222.651 Y135.836
G1 X222.563 Y135.769
G1 X222.555 Y135.685
G1 X222.836 Y135.458
G1 X222.957 Y135.399
G1 X223.042 Y135.381
G1 X223.085 Y135.381
M400
M86 B1 D0
G0 F4800 X223.328 Y136.037
; TYPE:WALL-INNER
M400
M86 B1 D1
G1 F336 X222.667 Y135.723
G1 X222.803 Y135.612
M400
M86 B1 D0
G0 F4800 X223.252 Y135.957
; TYPE:FILL
M400
M86 B1 D1
G1 F336 X223.17 Y135.897
G1 X223.184 Y135.601
G1 X222.869 Y135.775
M400
M86 B1 D0
G0 Z4.35
G0 F4800 X225.693 Y133.118
; TYPE:WALL-OUTER
G0 Z2.35
M400
M86 B1 D1
G1 F336 X225.598 Y133.094
; Layer Change GCode
; LAYER:24
M400
M86 B1 D0
;M87 B1 D1
;M87 B1 D1
;M87 B2 D1
;M87 B3 D1
;M87 B4 D1
;M87 B5 D1
;M87 B6 D1
;M87 B7 D1
G0 Z4.35
G0 F4800 X223.32 Y136.13 Z4.45
; TYPE:WALL-OUTER
G0 Z2.45
M400
;M87 B1 D0
M78 B1 D1
M400
M86 B1 D1
G1 F336 X222.658 Y135.807
G1 X222.638 Y135.762
G1 X222.645 Y135.681
G1 X222.829 Y135.502
G1 X222.971 Y135.43
G1 X223.039 Y135.424
M400
M86 B1 D0
G0 F4800 X223.308 Y136.012
; TYPE:WALL-INNER
M400
M86 B1 D1
G1 F336 X222.74 Y135.735
G1 X222.761 Y135.713
M400
M86 B1 D0
G0 F4800 X223.269 Y135.871
; TYPE:FILL
M400
M86 B1 D1
G1 F336 X222.9 Y135.643
G1 X222.868 Y135.753
; Layer Change GCode
; LAYER:25
M400
M86 B1 D0
;M87 B1 D1
;M87 B1 D1
;M87 B2 D1
;M87 B3 D1
;M87 B4 D1
;M87 B5 D1
;M87 B6 D1
;M87 B7 D1
G0 Z4.45
G0 F4800 X223.312 Y136.103 Z4.55
; TYPE:WALL-OUTER
G0 Z2.55
M400
;M87 B1 D0
M78 B1 D1
M400
M86 B1 D1
G1 F336 X222.751 Y135.834
G1 X222.689 Y135.783
G1 X222.684 Y135.755
G1 X222.719 Y135.675
G1 X222.83 Y135.554
G1 X222.94 Y135.498
M400
M86 B1 D0
G0 F4800 X223.275 Y135.974
; TYPE:WALL-INNER
M400
M86 B1 D1
G1 F336 X222.804 Y135.749
M400
M86 B1 D0
G0 F4800 X223.086 Y135.84
; TYPE:FILL
M400
M86 B1 D1
G1 F336 X223.114 Y135.67
G1 X222.897 Y135.747
; Layer Change GCode
; LAYER:26
M400
M86 B1 D0
;M87 B1 D1
;M87 B1 D1
;M87 B2 D1
;M87 B3 D1
;M87 B4 D1
;M87 B5 D1
;M87 B6 D1
;M87 B7 D1
G0 Z4.55
G0 F4800 X223.223 Y136.028 Z4.65
; TYPE:WALL-OUTER
G0 Z2.65
M400
;M87 B1 D0
M78 B1 D1
M400
M86 B1 D1
G1 F336 X222.786 Y135.822
G1 X222.751 Y135.762
G1 X222.759 Y135.694
G1 X222.807 Y135.641
G1 X222.85 Y135.617
M400
M86 B1 D0
G0 F4800 X223.245 Y135.91
; TYPE:WALL-INNER
M400
M86 B1 D1
G1 F336 X223.24 Y135.924
M400
M86 B1 D0
G0 F4800 X222.856 Y135.743
M400
M86 B1 D1
G1 F336 X222.866 Y135.731
M400
M86 B1 D0
G0 F4800 X222.873 Y135.718
M400
M86 B1 D1
G1 F336 X223 Y135.647
; Layer Change GCode
; LAYER:27
M400
M86 B1 D0
;M87 B1 D1
;M87 B1 D1
;M87 B2 D1
;M87 B3 D1
;M87 B4 D1
;M87 B5 D1
;M87 B6 D1
;M87 B7 D1
G0 Z4.65
G0 F4800 X223.215 Y136.004 Z4.75
; TYPE:WALL-OUTER
G0 Z2.75
M400
;M87 B1 D0
M78 B1 D1
M400
M86 B1 D1
G1 F336 X223.07 Y135.935
G1 X222.942 Y135.857
G1 X222.907 Y135.823
M400
M86 B1 D0
G0 F4800 X223.212 Y135.889
; TYPE:WALL-INNER
M400
M86 B1 D1
G1 F336 X223.164 Y135.844
M400
M86 B1 D0
G0 F4800 X223.205 Y135.839
M400
M86 B1 D1
G1 F336 X223.189 Y135.725
M400
M86 B1 D0
G0 F4800 X223.027 Y135.739
M400
M86 B1 D1
G1 F336 X222.984 Y135.751
G1 X223.123 Y135.85
; Layer Change GCode
; LAYER:28
M400
M86 B1 D0
;M87 B1 D1
;M87 B1 D1
;M87 B2 D1
;M87 B3 D1
;M87 B4 D1
;M87 B5 D1
;M87 B6 D1
;M87 B7 D1
G0 Z4.75
G0 F4800 X223.202 Y135.932 Z4.85
; TYPE:WALL-OUTER
G0 Z2.85
M400
;M87 B1 D0
M78 B1 D1
M400
M86 B1 D1
G1 F336 X223.022 Y135.792
M400
M107
M400
M400
M86 B1 D0
;M87 B1 D1
M78 H2
M140 S0
G28 XY  ; home X and Y axis
M84     ; disable motors
; filament used = 40.0
; filament used extruder 1 (mm) = 40.0
; filament used extruder 2 (mm) = 0.0
; total print time (s) = 108
; Element Version 1.7.4 Build francium-87-2 : GCode settings used
; Date 08/18/2021 00:00:00 Time 15:19
; numberOfBottomLayers = 1
; numberOfPerimeters = 2
; raftExtraDistanceAroundPart = 5
; numberOfSkirtLoops = 0
; supportInterfaceLayers = 9
; numberOfTopLayers = 1
; numberOfBrimLoops = 0
; outsidePerimeterExtrusionWidth = 0.5
; outsidePerimeterSpeed = 35
; firstLayerSpeed = 24
; raftPrintSpeed = 80
; topInfillSpeed = 50
; firstLayerExtrusionWidth = 0.5
; firstLayerThickness = 0.1
; beforeToolchangeCode =
; endCode = G28 XY  ; home X and Y axis\nM84     ; disable motors
; toolChangeCode =
; minimumTravelToCauseRetraction = 1.5
; retractionOnTravel = 6
; retractionZHop = 2
; unretractExtraExtrusion = 0
; retractRestartExtraTimeToApply = 0
; retractionSpeed = 30
; bridgeFanSpeedPercent = 100
; bridgeSpeed = 20
; firstLayerToAllowFan = 1
; extrusionMultiplier = 1
; infillStartingAngle = 45
; infillExtendIntoPerimeter = .06
; infillSpeed = 80
; infillType = LINES
; layerChangeCode = ; LAYER:[layer_num]
; fanSpeedMaxPercent = 100
; minimumExtrusionBeforeRetraction = .1
; fanSpeedMinPercent = 35
; minimumPrintingSpeed = 10
; insidePerimetersSpeed = 50
; raftAirGap = .2
; raftFanSpeedPercent = 100
; retractionOnExtruderSwitch = 6
; unretractExtraOnExtruderSwitch = 0
; skirtDistanceFromObject = 6
; minimumLayerTimeSeconds = 30
; supportAirGap = .3
; supportInfillStartingAngle = 45
; supportPercent = 50
; supportLineSpacing = 2.5
; supportMaterialSpeed = 60
; supportXYDistanceFromObject = 0.7
; supportType = LINES
; travelSpeed = 80
; wipeShieldDistanceFromObject = 0
; wipeTowerSize = 0
; zOffset = 0
; bottomClipAmount = 0
; filamentDiameter = 1.75
; layerThickness = 0.1
; avoidCrossingPerimeters = False
; enableRaft = False
; outsidePerimetersFirst = True
; outputOnlyFirstLayer = False
; retractWhenChangingIslands = True
; generateSupport = False
; generateInternalSupport = True
; generateSupportPerimeter = True
; wipeAfterRetraction = False
; centerObjectInXy = True
; expandThinWalls = True
; MergeOverlappingLines = True
; fillThinGaps = False
; continuousSpiralOuterPerimeter = False
; positionToPlaceObjectCenter = [150,90]
; startCode = ; automatic settings before start_gcode\nG21 ; set units to millimeters\nM107 ; fan off\n; settings from start_gcode\nG28 XY ; home all axes\n;M86 D0\n;;M87 D1\n;M76 D0\n;M72 D0\n; automatic settings after start_gcode\nG90 ; use absolute coordinates\nG92 E0 ; reset the expected extruder position\nM82 ; use absolute distance for extrusion
; infillPercent = 50
; perimeterStartEndOverlapRatio = 0.5
; skirtMinLength = 0
; supportExtrusionPercent = 100
; raftExtruder = -1
; supportExtruder = 0
; supportInterfaceExtruder = 0
; NewTools = SY:infillpercent=40,infilltype=GRID,infillstartingangle=45,position=1,psi=4,speed=20,width=0.1^SY:infillpercent=40,infilltype=GRID,infillstartingangle=45,position=2,psi=3,speed=8,width=2^SY:infillpercent=40,infilltype=GRID,infillstartingangle=45,position=3,psi=3,speed=8,width=2^SY:infillpercent=40,infilltype=GRID,infillstartingangle=45,position=4,psi=3,speed=8,width=2^SY:infillpercent=40,infilltype=GRID,infillstartingangle=45,position=5,psi=3,speed=8,width=2^SY:infillpercent=40,infilltype=GRID,infillstartingangle=45,position=6,psi=3,speed=8,width=2^SY:infillpercent=40,infilltype=GRID,infillstartingangle=45,position=7,psi=3,speed=8,width=2^SY:infillpercent=40,infilltype=GRID,infillstartingangle=45,position=8,psi=3,speed=8,width=2
; ToolSpecificInfill = False
